X: 538
T: Thro' the wood of Fife
R: reel
B: "Twenty Four Country Dances for the Year 1805", Tho. Preston, ed. p.229
F: http://folkopedia.efdss.org/images/archive/0/02/20121211105513%21Preston_24_1805.PDF
Z: 2011 John Chambers <jc:trillian.mit.edu>
N: rhythm fixed by adding rest as "pickup" to 1st strain.
M: C|
L: 1/8
K: G
z |\
d>GBG A>Bce | ceBd dGBG | ceBd ABce | d>BgB d2d ::
e |\
dBgB ABce | dBgB bBgB | dBgB ABce | dBgB d3g |
dBgB ABce | dBgB bBdB | cbBa ABce | dBgB d2d |]
%%begintext align
%% Cast off one Cu. up again, lead down the middle
%% up again and turn your partner.
%%endtext

%%sep 1 1 500
%%sep 1 1 500
